assets/01_base/Base_25.svg

<svg xmlns="http://www.w3.org/2000/svg" width="500" height="500" fill="none" viewBox="0 0 500 500"><g clip-path="url(#a)"><g clip-path="url(#b)"><path fill="#5cb94b" d="M412.656 53.453s-66.321-28.498-116.49-2.517c-50.156 25.968-65.184 96.537-65.197 96.604.053.027 66.348 28.484 116.49 2.516 50.155-25.968 65.183-96.563 65.197-96.604"/><path fill="#f4a6c8" d="M175.956 460c96.625 0 174.956-78.352 174.956-175.003 0-96.652-78.331-175.004-174.956-175.004C79.33 109.993 1 188.345 1 284.997S79.33 460 175.956 460"/><path fill="#f4a6c8" d="M325.045 460C421.67 460 500 381.648 500 284.997c0-96.652-78.33-175.004-174.955-175.004s-174.956 78.352-174.956 175.004S228.419 460 325.045 460"/></g></g><defs><clipPath id="a"><path fill="#fff" d="M0 0h500v500H0z"/></clipPath><clipPath id="b"><path fill="#fff" d="M1 40h499v420H1z"/></clipPath></defs></svg>

<svg width="500" height="500" viewBox="0 0 500 500" fill="none" xmlns="http://www.w3.org/2000/svg">
<g clip-path="url(#clip0_70_327)">
<g clip-path="url(#clip1_70_327)">
<path d="M412.656 53.4525C412.656 53.4525 346.335 24.9546 296.166 50.936C246.01 76.9041 230.982 147.473 230.969 147.54C231.022 147.567 297.317 176.024 347.459 150.056C397.614 124.088 412.642 53.4927 412.656 53.4525Z" fill="#5CB94B"/>
<path d="M175.956 460C272.581 460 350.912 381.648 350.912 284.997C350.912 188.345 272.581 109.993 175.956 109.993C79.3304 109.993 1 188.345 1 284.997C1 381.648 79.3304 460 175.956 460Z" fill="#F4A6C8"/>
<path d="M325.045 460C421.67 460 500 381.648 500 284.997C500 188.345 421.67 109.993 325.045 109.993C228.419 109.993 150.089 188.345 150.089 284.997C150.089 381.648 228.419 460 325.045 460Z" fill="#F4A6C8"/>
</g>
</g>
<defs>
<clipPath id="clip0_70_327">
<rect width="500" height="500" fill="white"/>
</clipPath>
<clipPath id="clip1_70_327">
<rect width="499" height="420" fill="white" transform="translate(1 40)"/>
</clipPath>
</defs>
</svg>
